X: 191
T: Qia Suantai
L: 1/8
M: 2/4
K: E
g> g f e [I:setbarnb 1]| 
f g f g | 
e d c e | 
B4 | 
B> c e e | 
B c G F | 
E E/ F/ G F | 
E4 |]

@@@ Tune index: 9065
